app/src/main/assets/symbols/transport/entrance.svg

<?xml version="1.0" encoding="UTF-8"?>
<svg id="d" width="10" height="10" version="1.1" viewBox="0 0 10 10" xmlns="http://www.w3.org/2000/svg" xmlns:cc="http://creativecommons.org/ns#" xmlns:dc="http://purl.org/dc/elements/1.1/" xmlns:rdf="http://www.w3.org/1999/02/22-rdf-syntax-ns#">
<metadata id="a">
<rdf:RDF>
<cc:Work rdf:about="">
<dc:format>image/svg+xml</dc:format>
<dc:type rdf:resource="http://purl.org/dc/dcmitype/StillImage"/>
<dc:title/>
</cc:Work>
</rdf:RDF>
</metadata>
<rect id="c" width="10" height="10" fill="none" visibility="hidden"/>
<path id="b" d="m2.75 0v2.5h1.25v-1.25h4.75v7.5h-4.75v-1.25h-1.25v2.5h7.25v-10zm2.25 2.5v1.75h-4v1.5h4v1.75l3-2.5z" fill="#0092da"/>
</svg>

﻿<?xml version="1.0" encoding="UTF-8" standalone="no"?>
<!-- Created with Inkscape (http://www.inkscape.org/) -->

<svg
   xmlns:dc="http://purl.org/dc/elements/1.1/"
   xmlns:cc="http://creativecommons.org/ns#"
   xmlns:rdf="http://www.w3.org/1999/02/22-rdf-syntax-ns#"
   xmlns:svg="http://www.w3.org/2000/svg"
   xmlns="http://www.w3.org/2000/svg"
   version="1.1"
   width="10"
   height="10"
   viewBox="0 0 10 10"
   id="svg2">
  <metadata
     id="metadata8">
    <rdf:RDF>
      <cc:Work
         rdf:about="">
        <dc:format>image/svg+xml</dc:format>
        <dc:type
           rdf:resource="http://purl.org/dc/dcmitype/StillImage" />
        <dc:title></dc:title>
      </cc:Work>
    </rdf:RDF>
  </metadata>
  <defs
     id="defs6" />
  <rect
     width="10"
     height="10"
     x="0"
     y="0"
     id="canvas"
     style="fill:none;stroke:none;visibility:hidden" />
  <path
     d="m 2.75,0 0,2.5 1.25,0 0,-1.25 4.75,0 0,7.5 L 4,8.75 4,7.5 2.75,7.5 2.75,10 10,10 10,0 z M 5,2.5 l 0,1.75 -4,0 0,1.5 4,0 L 5,7.5 8,5 z"
     id="entrance"
     style="fill:#0092da;fill-opacity:1;stroke:none" />
</svg>
